svg/home_modern.svg

<svg xmlns="http://www.w3.org/2000/svg" viewBox="0 0 24 24"><path d="M6 21V8a2 2 0 0 1 2-2l8-3v3a2 2 0 0 1 2 2v13h-6v-5H8v5zm8-2h2v-3h-2zm-6-6h2V9H8zm4 0h4V9h-4z"/></svg>

<?xml version="1.0" encoding="UTF-8"?><!DOCTYPE svg PUBLIC "-//W3C//DTD SVG 1.1//EN" "http://www.w3.org/Graphics/SVG/1.1/DTD/svg11.dtd"><svg xmlns="http://www.w3.org/2000/svg" xmlns:xlink="http://www.w3.org/1999/xlink" version="1.1" id="mdi-home-modern" width="24" height="24" viewBox="0 0 24 24"><path d="M6,21V8A2,2 0 0,1 8,6L16,3V6A2,2 0 0,1 18,8V21H12V16H8V21H6M14,19H16V16H14V19M8,13H10V9H8V13M12,13H16V9H12V13Z" /></svg>
